packages/other/assets/technologies/sql.svg

<svg xmlns="http://www.w3.org/2000/svg" viewBox="0 0 39 39">
  <title>SQL</title>
  <g fill="none" fill-rule="evenodd">
    <circle cx="19.5" cy="19.5" r="19.5" fill="#05192D"/>
    <path fill="#FFF" fill-rule="nonzero" d="M13.1318249,15.9193713 C13.0543574,15.9679912 12.9636384,15.9919516 12.8606976,15.9919516 C12.7554987,15.9919516 12.642065,15.9523318 12.5199402,15.8754113 C12.4082891,15.8053138 12.2779183,15.7279128 12.1306868,15.644457 C11.9850312,15.5618944 11.8134366,15.4863639 11.6154148,15.4176271 C11.4221097,15.3510309 11.1922535,15.3173966 10.9259207,15.3173966 C10.685255,15.3173966 10.4776262,15.3466069 10.3023764,15.4047391 C10.1279879,15.4621604 9.9818325,15.5415369 9.86353551,15.642471 C9.74664672,15.7424109 9.66010685,15.8611699 9.60295414,15.9998501 C9.54509167,16.1407541 9.51600573,16.2955607 9.51600573,16.4647309 C9.51600573,16.6758065 9.57321109,16.8488708 9.68714223,16.9864996 C9.80604279,17.1305941 9.96481041,17.25434 10.1643322,17.3578163 C10.3686542,17.4636745 10.6020458,17.558884 10.863608,17.6429363 C11.1226432,17.7259581 11.3933608,17.8167734 11.6797752,17.9165039 C11.9603239,18.0145679 12.2346519,18.128115 12.5027123,18.2572128 C12.7758666,18.3892244 13.0194201,18.5554883 13.2339644,18.756572 C13.450064,18.9597761 13.6235303,19.2080926 13.7542562,19.500969 C13.8855842,19.7959429 13.9509193,20.1512571 13.9509193,20.5663303 C13.9509193,21.0165805 13.8748189,21.438996 13.7226549,21.8333763 C13.5699375,22.2282451 13.3465749,22.5728376 13.0528938,22.8666689 C12.7591304,23.1598979 12.400861,23.3906988 11.9788255,23.5590008 C11.5568411,23.7268232 11.0749559,23.8105555 10.5338377,23.8105555 C10.2223964,23.8105555 9.91568629,23.7796919 9.61405373,23.7179348 C9.31209865,23.6564314 9.02262926,23.568444 8.74536196,23.4539047 C8.46801028,23.3395588 8.20842093,23.2021246 7.96730397,23.0419162 C7.7252685,22.8812474 7.50909326,22.7021556 7.31901263,22.5047096 L7.2761194,22.4601544 L7.30788457,22.4068581 L7.83191861,21.5287061 C7.88604232,21.4582425 7.95192612,21.3990029 8.02917525,21.3510199 C8.11045804,21.3004717 8.20132336,21.2750245 8.30002573,21.2750245 C8.42860159,21.2750245 8.56325655,21.3270249 8.70469631,21.4281242 C8.83440019,21.5210608 8.98551851,21.6230214 9.15663954,21.732854 C9.32748449,21.8425094 9.52915957,21.9426027 9.76109959,22.0325267 C9.98795479,22.1209907 10.263224,22.1655358 10.5868817,22.1655358 C11.0791596,22.1655358 11.4553012,22.048742 11.7185361,21.8176018 C11.9791671,21.588748 12.109957,21.2591107 12.109957,20.8228765 C12.109957,20.5835892 12.0520977,20.3919574 11.9376121,20.2452793 C11.8189813,20.0928687 11.6606627,19.9641677 11.4612913,19.8584096 C11.2576237,19.7508109 11.0256432,19.6595339 10.7648517,19.58459 C10.4982367,19.5079725 10.2270381,19.4245158 9.95098453,19.3341546 C9.67241374,19.2429695 9.39884116,19.1337866 9.13068732,19.0066795 C8.85671186,18.8770439 8.61217443,18.7078165 8.39790851,18.4994129 C8.18180875,18.2894585 8.00838259,18.0271941 7.87777728,17.7137373 C7.74696952,17.3995625 7.68211591,17.0147096 7.68211591,16.5591417 C7.68211591,16.1933184 7.75402128,15.8364971 7.8976102,15.4890065 C8.04158268,15.1413699 8.25164727,14.8333255 8.527608,14.5650856 C8.80341055,14.2967783 9.14125893,14.082041 9.54044549,13.9209455 C9.94008478,13.7595758 10.3955503,13.6791045 10.9062503,13.6791045 C11.4822704,13.6791045 12.0147709,13.7707717 12.5027479,13.9541004 C12.9912994,14.1374161 13.4083134,14.3949588 13.753128,14.726688 L13.7964735,14.7683886 L13.3304441,15.6783675 C13.2752401,15.7894913 13.2098108,15.8701543 13.1318249,15.9193713 Z M20.5603201,23.7627424 C20.3194622,23.794599 20.068944,23.8105106 19.8085609,23.8105106 C19.0714947,23.8105106 18.3976082,23.6838678 17.787123,23.4302172 C17.1766219,23.1762385 16.6534528,22.8226737 16.218187,22.3696204 C15.782972,21.916854 15.4458316,21.3803204 15.2069778,20.7608738 C14.9684276,20.142215 14.8492274,19.4698677 14.8492274,18.7448973 C14.8492274,18.0199268 14.9684276,17.3475795 15.2069778,16.7289207 C15.4458019,16.1095511 15.7829155,15.5730032 16.2181727,15.1199648 C16.6534528,14.6668966 17.1766219,14.3133317 17.7871556,14.0593395 C18.3973665,13.8058028 19.0711998,13.6792839 19.8085609,13.6792839 C20.5457365,13.6792839 21.2186328,13.8070901 21.8269867,14.063068 C22.4353052,14.3191257 22.9563427,14.672694 23.389228,15.1235566 C23.8220925,15.5741694 24.1580804,16.1096068 24.396883,16.7289207 C24.6355337,17.3478402 24.7548545,18.0202343 24.7548545,18.7448973 C24.7548545,19.1867677 24.7098336,19.6100645 24.6198513,20.0139713 C24.5297746,20.4183024 24.4003523,20.7963683 24.2314387,21.1480205 C24.0624481,21.5000729 23.8562733,21.8235863 23.6127017,22.1188756 C23.3880175,22.3910566 23.1345207,22.6332594 22.8527313,22.8449518 L25.3545235,25.6119403 L23.6982272,25.6119403 C23.4772364,25.6119403 23.2768246,25.5813005 23.0975262,25.5197949 C22.9136863,25.4567314 22.7462615,25.3411573 22.5953785,25.1739931 L21.2185213,23.6317234 C21.0046115,23.6890913 20.7852117,23.7327292 20.5603201,23.7627424 Z M22.7600648,18.7442723 C22.7600648,18.2174561 22.6915012,17.7461664 22.5546445,17.3295825 C22.4185645,16.9151441 22.2232958,16.5637518 21.9692887,16.2753059 C21.7155798,15.9876595 21.4074079,15.7675952 21.0440804,15.6148255 C20.6795116,15.4616243 20.2677251,15.3848521 19.8080066,15.3848521 C19.348222,15.3848521 18.93529,15.4616469 18.5686871,15.6148892 C18.2029424,15.7676831 17.8925203,15.9877865 17.6366011,16.2755088 C17.3805177,16.5638748 17.1832248,16.9152316 17.0448808,17.3299921 C16.9058384,17.7459886 16.8362815,18.2170254 16.8362815,18.7442723 C16.8362815,19.2715192 16.9058384,19.742556 17.0448967,20.1586002 C17.1832171,20.57329 17.3804613,20.9234142 17.6363782,21.2091986 C17.8922938,21.4949596 18.2027504,21.714055 18.5687022,21.8669354 C18.93529,22.0201714 19.348222,22.0969662 19.8080066,22.0969662 C20.2677251,22.0969662 20.6795116,22.020194 21.0440651,21.8669992 C21.4075996,21.7141425 21.7158055,21.4950862 21.9694663,21.2094507 C22.2233505,20.9235396 22.4185716,20.573379 22.5546485,20.15895 C22.6915012,19.7423782 22.7600648,19.2710885 22.7600648,18.7442723 Z M32.0149254,22.0440352 L32.0149254,23.7027343 L26.218257,23.7027343 L26.218257,13.7870153 L28.1655282,13.7870153 L28.1655282,22.0440352 L32.0149254,22.0440352 Z"/>
  </g>
</svg>

<svg xmlns="http://www.w3.org/2000/svg" xmlns:xlink="http://www.w3.org/1999/xlink" width="39" height="39"><title>SQL</title><defs><linearGradient id="b" x1="50%" x2="50%" y1="0%" y2="100%"><stop offset="0%" stop-color="#B8BCF9"/><stop offset="100%" stop-color="#988DE6"/></linearGradient><circle id="a" cx="19.5" cy="19.5" r="19.5"/></defs><g fill="none" fill-rule="evenodd"><mask id="c" fill="#fff"><use xlink:href="#a"/></mask><use fill="url(#b)" xlink:href="#a"/><path fill="#FFF" fill-rule="nonzero" d="M13.132 15.92a.5.5 0 01-.271.072.65.65 0 01-.341-.117c-.112-.07-.242-.147-.39-.23a3.127 3.127 0 00-.515-.227 2.123 2.123 0 00-.69-.1c-.24 0-.447.029-.623.087-.174.057-.32.137-.438.237a.93.93 0 00-.261.358c-.058.14-.087.296-.087.465a.79.79 0 00.171.521c.119.145.278.268.477.372.205.106.438.2.7.285.259.083.53.174.816.274.28.098.555.211.823.34.273.132.516.298.731.5.216.203.39.451.52.744.132.295.197.65.197 1.065 0 .45-.076.873-.228 1.267a2.95 2.95 0 01-.67 1.034 3.15 3.15 0 01-1.074.692c-.422.168-.904.252-1.445.252a4.755 4.755 0 01-1.788-.357 4.505 4.505 0 01-.779-.412 3.855 3.855 0 01-.648-.537l-.043-.045.032-.053.524-.878c.054-.07.12-.13.197-.178a.504.504 0 01.271-.076c.129 0 .263.052.405.153.13.093.28.195.452.305.17.11.372.21.604.3.227.088.502.133.826.133.492 0 .868-.117 1.132-.348.26-.23.391-.559.391-.995 0-.24-.058-.431-.172-.578a1.455 1.455 0 00-.477-.387 3.643 3.643 0 00-.696-.273c-.267-.077-.538-.16-.814-.25a6.993 6.993 0 01-.82-.328 2.7 2.7 0 01-.733-.508 2.326 2.326 0 01-.52-.785c-.131-.314-.196-.7-.196-1.155a2.778 2.778 0 01.846-1.994 3.092 3.092 0 011.012-.644c.4-.161.856-.242 1.366-.242.576 0 1.109.092 1.597.275.488.183.905.441 1.25.773l.043.041-.466.91a.578.578 0 01-.198.241zm7.428 7.843a5.73 5.73 0 01-.751.048 5.219 5.219 0 01-2.022-.38 4.593 4.593 0 01-1.569-1.061 4.768 4.768 0 01-1.011-1.61 5.558 5.558 0 01-.358-2.015c0-.725.12-1.397.358-2.016a4.77 4.77 0 011.011-1.609 4.593 4.593 0 011.57-1.06 5.219 5.219 0 012.02-.38c.738 0 1.41.127 2.019.383.608.256 1.13.61 1.562 1.06.433.451.77.987 1.008 1.606.239.619.358 1.291.358 2.016 0 .442-.045.865-.135 1.269-.09.404-.22.782-.389 1.134a4.748 4.748 0 01-.618.97 4.442 4.442 0 01-.76.727l2.502 2.767h-1.657c-.22 0-.421-.03-.6-.092a1.204 1.204 0 01-.503-.346l-1.376-1.542a5.187 5.187 0 01-.659.13zm2.2-5.019c0-.527-.068-.998-.205-1.414a2.979 2.979 0 00-.586-1.055 2.516 2.516 0 00-.925-.66 3.163 3.163 0 00-1.236-.23c-.46 0-.873.077-1.24.23a2.539 2.539 0 00-.931.66 2.99 2.99 0 00-.592 1.055 4.449 4.449 0 00-.209 1.414c0 .528.07.999.209 1.415.138.414.335.764.591 1.05.256.286.567.505.933.658.366.153.78.23 1.239.23.46 0 .872-.077 1.236-.23.364-.153.672-.372.925-.658a2.94 2.94 0 00.586-1.05c.137-.417.205-.888.205-1.415zm9.255 3.3v1.659h-5.797v-9.916h1.948v8.257h3.849z" mask="url(#c)"/></g></svg>
